X:1923
T:Favourite Quick March,A. WM027
O:england
M:4/4
L:1/8
Q:200
S:Wm.Mittell,1799
R:Reel
A:Kent
K:G
g2dB cAAc|BGGB AFDA|g2dB cAAc|BGAFG2G2:|
|:G-B.B.B A-c.c.c|B-d.d.d gdBG|G-B.B.B A-c.c.c|BAGFG2G2:|
|:g2bg fafd|g2bga2f2|g2bg fafd|gdcB"DC"B2A2:|]
